assets/img/braze_icons/arrow-block-left.svg

<svg fill="none" height="24" viewBox="0 0 24 24" width="24" xmlns="http://www.w3.org/2000/svg"><path clip-rule="evenodd" d="m10.3827 4.07615c.3737.15478.6173.51942.6173.92388v3l9.2231-.00001c.1192-.00004.2614-.0001.3867.01014.1452.01187.3532.04231.5712.15336.2822.14381.5117.37328.6555.65552.1111.21795.1415.42594.1534.57116.0102.12531.0102.26757.0101.38668-.0007 1.48212-.0007 2.96422 0 4.44632.0001.1191.0001.2613-.0101.3867-.0119.1452-.0423.3532-.1534.5711-.1438.2823-.3733.5117-.6555.6555-.218.1111-.426.1415-.5712.1534-.1253.0102-.2676.0102-.3867.0101h-9.2231v3c0 .4045-.2436.7691-.6173.9239s-.80381.0692-1.08981-.2168l-7-7c-.39052-.3905-.39052-1.0237 0-1.4142l7-6.99998c.286-.286.71611-.37155 1.08981-.21677z" fill="#801ed7" fill-rule="evenodd"/></svg>

<svg width="24" height="24" viewBox="0 0 24 24" fill="none" xmlns="http://www.w3.org/2000/svg">
<path fill-rule="evenodd" clip-rule="evenodd" d="M10.3827 4.07615C10.7564 4.23093 11 4.59557 11 5.00003V8.00003L20.2231 8.00002C20.3423 7.99998 20.4845 7.99992 20.6098 8.01016C20.755 8.02203 20.963 8.05247 21.181 8.16352C21.4632 8.30733 21.6927 8.5368 21.8365 8.81904C21.9476 9.03699 21.978 9.24498 21.9899 9.3902C22.0001 9.51551 22.0001 9.65777 22 9.77688C21.9993 11.259 21.9993 12.7411 22 14.2232C22.0001 14.3423 22.0001 14.4845 21.9899 14.6099C21.978 14.7551 21.9476 14.9631 21.8365 15.181C21.6927 15.4633 21.4632 15.6927 21.181 15.8365C20.963 15.9476 20.755 15.978 20.6098 15.9899C20.4845 16.0001 20.3422 16.0001 20.2231 16L11 16V19C11 19.4045 10.7564 19.7691 10.3827 19.9239C10.009 20.0787 9.57889 19.9931 9.29289 19.7071L2.29289 12.7071C1.90237 12.3166 1.90237 11.6834 2.29289 11.2929L9.29289 4.29292C9.57889 4.00692 10.009 3.92137 10.3827 4.07615Z" fill="#801ED7"/>
</svg>
